X:4955
L:1/8
M:2/2
K:G
 Bc | d2 B2 g2 B2 | d2 B4 AB | g2 gg f2 gf | e2 c4 AB | c2 gf e2 d2 | f2 d4 AB | cdeg (3fgf ef | 
 g2 B4 Bc | d2 B2 g2 B2 | d2 B4 AB | g2 gg f2 gf | e2 c4 | a2- agab agef | gfga gfed | cdAc BAFD | 
 G6 :: B,A, | G,2 B,2 D2 G2 | B6 A2 | B2 d2 c2 B2 | E6 E2 | (D3 F) A2 d2 | f2- f2- f2 e2 | 
 g2 f2 e2 d2 | B6 B,A, | G,2 B,2 D2 G2 | B6 A2 | B2 d2 c2 B2 | c4 c4 | a3 a agef | g2 ga gedc | 
 B2 (Bc) BAFD | G2 GG G2 :|

